www/assets/icons/accessibility_new.svg

<svg xmlns="http://www.w3.org/2000/svg" width="24" height="24" viewBox="0 0 24 24" fill='currentColor'><path d="M20.5 6c-2.61.7-5.67 1-8.5 1s-5.89-.3-8.5-1L3 8c1.86.5 4 .83 6 1v13h2v-6h2v6h2V9c2-.17 4.14-.5 6-1zM12 6c1.1 0 2-.9 2-2s-.9-2-2-2-2 .9-2 2 .9 2 2 2"/></svg>

<svg width="24" height="24" viewBox="0 0 24 24" xmlns="http://www.w3.org/2000/svg" fill='currentColor'><path d="M20.5 6C17.89 6.7 14.83 7 12 7C9.17 7 6.11 6.7 3.5 6L3 8C4.86 8.5 7 8.83 9 9V22H11V16H13V22H15V9C17 8.83 19.14 8.5 21 8L20.5 6ZM12 6C13.1 6 14 5.1 14 4C14 2.9 13.1 2 12 2C10.9 2 10 2.9 10 4C10 5.1 10.9 6 12 6Z"/></svg>
